src/assets/contato/send-message-icon.svg

<svg width="23" height="23" viewBox="0 0 23 23" fill="none" xmlns="http://www.w3.org/2000/svg">
<path fill-rule="evenodd" clip-rule="evenodd" d="M18.4106 1.98121L3.54585 5.69741C1.57017 6.19133 1.32354 8.89933 3.17748 9.74206L7.7574 11.8239C8.69637 12.2506 9.71281 12.4048 10.7006 12.2996C10.5953 13.2873 10.7494 14.3037 11.1763 15.2427L13.2581 19.8226C14.1008 21.6766 16.8088 21.4299 17.3027 19.4543L21.0188 4.58945C21.4127 3.01425 19.9859 1.58741 18.4106 1.98121ZM8.55052 10.0789C9.44856 10.4872 10.4537 10.5183 11.3538 10.1991C11.694 10.0784 12.0191 9.90766 12.3178 9.6883C12.3594 9.65773 12.4005 9.6262 12.4411 9.59381L14.6345 7.83904C14.9836 7.55976 15.4404 8.0165 15.161 8.36561L13.4063 10.559C13.3738 10.5996 13.3424 10.6407 13.3118 10.6823C13.0925 10.981 12.9217 11.3062 12.801 11.6464C12.4817 12.5464 12.513 13.5515 12.9211 14.4496L15.0029 19.0295C15.0947 19.2313 15.3895 19.2045 15.4433 18.9894L19.1595 4.12459C19.2023 3.95311 19.047 3.79778 18.8755 3.84066L4.01072 7.55685C3.79563 7.61062 3.76878 7.90542 3.97061 7.99716L8.55052 10.0789Z" fill="#383D43"/>
</svg>

<svg xmlns="http://www.w3.org/2000/svg" width="23" height="23" fill="none"><path fill="#383D43" fill-rule="evenodd" d="M18.41 1.981 3.547 5.697C1.57 6.191 1.324 8.9 3.177 9.742l4.58 2.082a5.66 5.66 0 0 0 2.944.476 5.656 5.656 0 0 0 .475 2.943l2.082 4.58c.843 1.854 3.55 1.607 4.045-.369L21.019 4.59c.394-1.575-1.033-3.002-2.608-2.608ZM8.55 10.08a3.746 3.746 0 0 0 3.891-.485l2.193-1.755c.35-.28.806.178.527.527l-1.755 2.193a3.801 3.801 0 0 0-.605 1.087c-.32.9-.288 1.905.12 2.804l2.082 4.58a.234.234 0 0 0 .44-.04L19.16 4.124a.234.234 0 0 0-.285-.284L4.011 7.557a.234.234 0 0 0-.04.44l4.58 2.082Z" clip-rule="evenodd"/></svg>
